X: 1
T: Tuginata pusta da ostane
R: lesnoto
O: Bulgaria
Z: John Chambers <jc:trillian.mit.edu>
M: 7/8
L: 1/8
K: G
P: Instr.
|: "C"[e2c][dB] "(Am)"[cA][dB] [ec][cA] | "G"[d2B][cA] "(Em)"[BG][cA] [dB][BG] |1 \
 "D7"[c2A][BG] [AF][BG] [cA][AD] | "G"[B2G][AD] [BG][cA] [d2B] :|2 \
 "D7"[c2A][BG] [AF][BG] [cA][AF] | "G"[B7G]- | [B3G] z4 ||
P: Vocal
|| "G"[D2G][GB] [G2B] [G2B] | "Am"[A2c][Bd] ([ce][Bd]) ([Ac][GB]) | "D7"([Bd][A2c]) [A4c]- | [A7c] |
w: 1.~Tu-gi-na-ta pu-sta da* o-*sta-*ne.
w: 2.~Si te pe-\vcal-ba-ri si* doj-*do-*ja
w: 3.~Ke ve pra-\vsam mla-di pe-*\vcal-*ba-*ri
w: 4.~Na tre-ta go-di-na pis-*mo* pra-*ti
|  "G"[G2B][Ac] [B2d] [B2d] | "Am"[c2e][Bd] "D7"([Ac][GB]) ([Ac][Bd]) | "G"([Ac][G2B]) [G4B]- | [G7B] ||
w: Ta-ja od li-be-to me* raz-*de-*li.
w: Sa-mo mo-je-to li-be* go* ne-*ma
w: Da li go vi-dov-te moj-*to* li-*be
w: I mi pi-\vsi ne-ma da* se* vra-*ti.
|: "G"[G2B][Bd] [B2d] [B2d] | [d2f][df] ([ce][Bd]) ([Ac][GB]) | "Am"([Bd][A2c]) [A4c]- | "D7"[A7c] |
w: Ta-ja od li-be-to me* raz-*de-*li.
w: De-nje no-tje na por-ti* go* \vce-*kam
w: Da li go vi-dov-te moj-*to* li-*be
w: Ne se vra-tja dru-ga si* za* lju-*bi,
|  "G"[G2B][Ac] [B2d] [B2d] | "Am"[c2e][Bd] "D7"([Ac][GB]) ([Ac][Bd]) | "G"([Ac][G2B]) [G4B]- | [G7B] :|
w: \vSto go lju-bev vre-me tri* go-*di-*ni.
w: Sa-mo pla-\vcam i na ne-*go* mis-*lam.
w: Od pe-\vcal-ba do-ma da* si* i-*de.
w: I za ne-ja toj si se* o* \vze-*ni.
